!!!COM: Mozart
!!!OTL: 12 Variations on "Ah Vous dirais-je, Maman" for the Piano,
!!!Variation: 1 a
**kern	**kern
*M2/4	*M2/4
=-	=-
4C	16ddLL
.	16cc
.	16b
.	16ccJJ
4c	16bLL
.	16cc
.	16b
.	16ccJJ
=	=
4e	16aaLL
.	16gg
.	16ff#
.	16ggJJ
4c	16ff#LL
.	16gg
.	16ff#
.	16ggJJ
=	=
4f	16gg#LL
.	16aa
.	16ccc
.	16bbJJ
4c	16dddLL
.	16ccc
.	16bb
.	16aaJJ
=	=
4e	16aaLL
.	16gg
.	16eee
.	16dddJJ
8.r	16cccLL
.	16bb
.	16aa
16c#	[16ggJJ
=	=
4d	16ggLL]
.	16ff
.	16ddd
.	16cccJJ
8.r	16bbLL
.	16aa
.	16gg
16B	[16ffJJ
=	=
4c	16ffLL]
.	16ee
.	16ccc
.	16bbJJ
8.r	16aaLL
.	16gg
.	16ff
16A	16eeJJ
=	=
4F	8ddL
.	8aaJ
4G	8ggL
.	8bJ
=	=
4c	4cc
4C	4r
=	=
*-	*-
